X: 12
T: Fecit potentiam
N: Derived from Tin2002-Fecit_potentiam.krn
C: Johannes Tinctoris
%%abc-version 2.0
%%abcx-abcm2ps-target-version 5.9.1 (29 Sep 2008)
%%abc-creator hum2abc beta
%%abcx-conversion-date 2019/02/17 07:34:55
%%abc-edited-by Jesse Rodin
%%abc-edited-by Chris Gage 01-15-2015
%%abcx-initial-encoding-date 2015/02/21/
%%humdrum-veritas 120585357
%%humdrum-veritas-data 2298208336
%%linebreak <none>
%%barnumbers 0
L: 1/4
M: 2/1
Q: 1/2=120
%%staves {1 2}
V: 1 clef=treble
V: 2 clef=treble
K: C
[V:1] C4D4 | 
[V:2] z8 | 
[V:1] CDECF4 | 
[V:2] C4D4 | 
[V:1] G2A4GF | 
[V:2] CDECF4 | 
[V:1] E2F4ED | 
[V:2] G2A4GF | 
[V:1] C2A4G2- | 
[V:2] E2F4ED | 
[V:1] GFEDC4 | 
[V:2] C2A4G2- | 
[V:1] E3FG2C2- | 
[V:2] GFEDC2E2- | 
[V:1] C2E4F2- | 
[V:2] EFG2C2D2- | 
[V:1] FCE2D4 | 
[V:2] DA,C4B,2 | 
[V:1] C4F4 | 
[V:2] C4z4 | 
[V:1] G2A4GF | 
[V:2] C4F4 | 
[V:1] E4E2F2- | 
[V:2] G6A2- | 
[V:1] F2EDC4 | 
[V:2] A2GFE4 | 
[V:1] F4G4 | 
[V:2] D4z4 | 
[V:1] A4z4 | 
[V:2] F4G4 | 
[V:1] D4C2D2 | 
[V:2] A4z2F2- | 
[V:1] A,2C4B,2 | 
[V:2] FA,E2D4 | 
[V:1] C8 | 
[V:2] C4z4 | 
[V:1] c8 | 
[V:2] z8 | 
[V:1] A8 | 
[V:2] c4c4 | 
[V:1] F8 | 
[V:2] A4A4 | 
[V:1] D2F4ED | 
[V:2] F4F4 | 
[V:1] C2A4GF | 
[V:2] E2F4ED | 
[V:1] E4D4 | 
[V:2] C4D2A2- | 
[V:1] DEFDG4 | 
[V:2] A2GFE4 | 
[V:1] A4D4 | 
[V:2] D4z4 | 
[V:1] d4c4 | 
[V:2] z8 | 
[V:1] BAGFE2A2- | 
[V:2] d4c4 | 
[V:1] A2G2A4 | 
[V:2] B4A2GF | 
[V:1] G4F2ED | 
[V:2] E4F3G | 
[V:1] C2F4E2 | 
[V:2] A4G4 | 
[V:1] F4E4 | 
[V:2] F2EDC4 | 
[V:1] D4C2B,A, | 
[V:2] F4E2E2- | 
[V:1] G,2C4B,2 | 
[V:2] E2DCD4 | 
[V:1] C8 |]  
[V:2] C8 |]  



